;  Created by Sandify
;  https://sandify.org
;  Version: 0.2.4
;
;  Machine type: Rectangular
;    Min X (mm): 0
;    Max X (mm): 500
;    Min Y (mm): 0
;    Max Y (mm): 500
;  Content type: machine
;  Reverse export path: false
;
; File name: 'cyrus_test'
;

G01 X257.071 Y257.071
G01 X241.161 Y258.839
G01 X239.393 Y239.393
G01 X262.374 Y237.626
G01 X264.142 Y264.142
G01 X234.090 Y265.910
G01 X232.322 Y232.322
G01 X269.445 Y230.555
G01 X271.213 Y271.213
G01 X227.019 Y272.981
G01 X225.251 Y225.251
G01 X276.517 Y223.483
G01 X278.284 Y278.284
G01 X219.948 Y280.052
G01 X218.180 Y218.180
G01 X283.588 Y216.412
G01 X285.355 Y285.355
G01 X212.877 Y287.123
G01 X211.109 Y211.109
G01 X290.659 Y209.341
G01 X292.426 Y292.426
G01 X205.806 Y294.194
G01 X204.038 Y204.038
G01 X297.730 Y202.270
G01 X299.497 Y299.497
G01 X198.735 Y301.265
G01 X196.967 Y196.967
G01 X304.801 Y195.199
G01 X306.569 Y306.569
G01 X191.664 Y308.336
G01 X189.896 Y189.896
G01 X311.872 Y188.128
G01 X313.640 Y313.640
G01 X184.593 Y315.407
G01 X182.825 Y182.825
G01 X318.943 Y181.057
G01 X320.711 Y320.711
G01 X177.522 Y322.478
G01 X175.754 Y175.754
G01 X326.014 Y173.986

